!!!OTL: 267. Der gefangene Saenger.
!!!COM: B.
!!!ODT: 1869
!!!ARE: Europa, Mitteleuropa, Deutschland
!!!SCT: B0267
!!!TXL: @@DE
!!!YEM: Copyright 1995, estate of Helmut Schaffrath.
**kern	**text
*ICvox	*
*Ivox	*
*clefG2	*
*M6/8	*
*k[b-e-]	*
*g:	*
=1	=1
!LO:TX:a:t=Langſam.	!
{4d	Vög-
8g	-lein,
4b-	ein-
8b-	-ſam
=2	=2
4b-	in
8a	dem
4g	Bau-
8d}	-er,
=3	=3
{4g	Herʒ-
8a	-chen
4b-	ein-
16gL	-ſam
16aJ	.
=4	=4
4b-	in
8cc	der
4.dd;}	Bruſt:
=5	=5
{8ccL	bei-
8ddJ	.
8cc	-de
4b-	ha-
8b-	-ben
=6	=6
8aL	gro-
8b-J	.
8a	-ße
4g	Trau-
8d}	-er
=7	=7
{4e-	um
8c	die
8dL	ſü-
8gJ	.
8b-	-ße
=8	=8
4b-	Früh-
8a	-lings-
4.g;}	-luſt.
==	==
!!!AGN: Stimmungs - Lied, Trauer
!!!GTL: Trauerlieder (Elegien) und Stimmungslieder
!!!ONB: ESAC (Essen Associative Code) Database: BOEHME
!!!AMT: compound duple
!!!AIN: vox
!!!EED: Helmut Schaffrath
!!!EEV: 1.0
!!@@COMMENT:"Gedicht v. Max v. Schenkendorf (vor 1817); ſ. deſſen "Sämmtliche Gedichte". Berlin 1837."
!!@@END:
!!!Text: Max von Schenkendorf
!!!URL-scan: https://archive.org/details/BoehmeVtLieder1895/page/n231/mode/2up
!!!ENC: Anna Maria Matuszewska
!!!EEV: 2024/03/07
*-	*-
